X:57
T:Mason's Apron, The
S:The Session: https://thesession.org/tunes/74#setting55364
C:Traditional
R:reel
K:A
M:4/4
L:1/8
Q:1/4=120
ed|:"A"c2 A2 ABAF|EFAB c2 BA|"D"dB B2 BcBA|Bcde "E"f2 ed|
|"A"c2 A2 ABAF|EFAB c2 BA|"D"BABc defa|"E"edcB "A"A2 ed:|
|:"A"cAeA fAeA|cAeA fedc|"D"dBfB gBfB|dBfB gfed|
|"A"cAeA fAeA|cAeA fedc|"D"Bcde fefa|1 "E"edcB "A"A2 ed:|2 "E"edcB "A"A4|]

